images/roofs-type/complex.svg

<svg height="120" width="120" xmlns="http://www.w3.org/2000/svg"><g fill="none" fill-rule="evenodd"><g fill-rule="nonzero"><path d="m11.45 46.47v9.32l30.92 3.04v-9.44z" fill="#f2f2f2"/><path d="m45.44 56.9-33.37-3.86-11.13 9.97.98 2.65 33.96 3.88 9.53-8.44zm57.06-12.82 12.99 10.84-2.72 3.01-8.07-7.19-19.82 18.39-33.12-3.97-1.48-3.58 18.87-20.12z" fill="#c5e2e6"/><path d="m93.44 37.27 6.34 5.37v2.54l-6.34-.91-10.5 7.15-21.49-2.4.02-4.8 11.54-5.88z" fill="#fff"/><g fill="#c5e2e6"><path d="m93.44 32.9 8.26 7.16-1.92 2.58-6.34-5.37-10.47 9.35-20.5-2.4-1.38-3.44 11.92-9.44z"/><path d="m35.76 21.93-27.39 18.33 1.57 3.52 34.13 3.49 28.8-21.84 8.29 7.83 1.31-1.04-9.6-9.63z"/></g></g><g stroke="#6eb7c2" stroke-linecap="round" stroke-linejoin="round" stroke-width="1.5"><path d="m72.87 21.59-28.95 22.03-35.55-3.36 27.39-19.33 37.11.66 9.6 9.63"/><path d="m73.01 31.34 20.43 1.56 8.26 7.16"/><path d="m93.44 32.9-11.96 10.18-20.39-2.3 11.92-9.44zm-9.98 19.59 9.98-8.22 11.26.79-22.17 20.37-32.25-3.85 12.47-11.44zm21.24-7.43 10.79 9.86"/></g><path d="m39.61 36.65 8.29.8-4.32-5.25z" fill="#fff" fill-rule="nonzero"/><path d="m57.63 27.9h-14.04l-7.46 8.51m7.45-8.51 6.98 9.07" stroke="#6eb7c2" stroke-linecap="round" stroke-linejoin="round" stroke-width="1.5"/><path d="m15.61 35.37 6.68-7.63h14.05l-7.07 9.06z" fill="#c5e2e6" fill-rule="nonzero"/><path d="m36.96 27.02h-14.05l-6.68 7.64m6.68-7.64 6.98 9.07" stroke="#6eb7c2" stroke-linecap="round" stroke-linejoin="round" stroke-width="1.5"/><path d="m18.94 35.77 8.29.79-4.32-5.25z" fill="#fff" fill-rule="nonzero"/><path d="m9.26 64.57 6.68-7.63h14.05l-7.07 9.06z" fill="#c5e2e6" fill-rule="nonzero"/><path d="m24.71 54.8-8.15.42-6.68 7.63m6.68-7.63 6.98 9.07" stroke="#6eb7c2" stroke-linecap="round" stroke-linejoin="round" stroke-width="1.5"/><path d="m10.75 67.84 11.78 1.13-6.14-8.46z" fill="#fff" fill-rule="nonzero"/><path d="m36.96 27.02-7.07 9.07m27.75-8.19-6.36 10.08" stroke="#6eb7c2" stroke-linecap="round" stroke-linejoin="round" stroke-width="1.5"/><path d="m3.86 69.54 9.84 1.19 2.94-3.4 3.37 4.16 15.89 1.91v25.47l-32.04-5.3zm48.55-.25v25.84l32.62 5.93v-27.3z" fill="#f2f2f2" fill-rule="nonzero"/><path d="m25.98 55.22-2.44 9.06 11.36 1.61 10.83-9.03-33.66-3.82-11.13 8.97 8.94.84" stroke="#6eb7c2" stroke-linecap="round" stroke-linejoin="round" stroke-width="1.5"/></g></svg>

<svg width="120" height="120" viewBox="0 0 120 120" fill="none" xmlns="http://www.w3.org/2000/svg">
<path d="M11.45 46.47V55.79L42.37 58.83V49.39L11.45 46.47Z" fill="#EEEEEE"/>
<path d="M45.44 56.9L12.07 53.04L0.940002 63.01L1.92 65.66L35.88 69.54L45.41 61.1L45.44 56.9ZM102.5 44.08L115.49 54.92L112.77 57.93L104.7 50.74L84.88 69.13L51.76 65.16L50.28 61.58L69.15 41.46L102.5 44.08Z" fill="#BBCAE8"/>
<path d="M93.44 37.27L99.78 42.64V45.18L93.44 44.27L82.94 51.42L61.45 49.02L61.47 44.22L73.01 38.34L93.44 37.27Z" fill="white"/>
<path d="M93.44 32.9L101.7 40.06L99.78 42.64L93.44 37.27L82.97 46.62L62.47 44.22L61.09 40.78L73.01 31.34L93.44 32.9Z" fill="#BBCAE8"/>
<path d="M35.76 21.93L8.37 40.26L9.93999 43.78L44.07 47.27L72.87 25.43L81.16 33.26L82.47 32.22L72.87 22.59L35.76 21.93Z" fill="#BBCAE8"/>
<path d="M72.87 21.59L43.92 43.62L8.37 40.26L35.76 20.93L72.87 21.59ZM72.87 21.59L82.47 31.22" stroke="#1B4EB2" stroke-width="1.5" stroke-linecap="round" stroke-linejoin="round"/>
<path d="M73.01 31.34L93.44 32.9L101.7 40.06" stroke="#1B4EB2" stroke-width="1.5" stroke-linecap="round" stroke-linejoin="round"/>
<path d="M104.7 45.06L93.44 44.27L83.46 52.49L62.75 50.14L50.28 61.58L82.53 65.43L104.7 45.06ZM104.7 45.06L115.49 54.92M93.44 32.9L81.48 43.08L61.09 40.78L73.01 31.34L93.44 32.9Z" stroke="#1B4EB2" stroke-width="1.5" stroke-linecap="round" stroke-linejoin="round"/>
<path d="M39.61 36.65L47.9 37.45L43.58 32.2L39.61 36.65Z" fill="white"/>
<path d="M57.63 27.9H43.59L36.13 36.41M43.58 27.9L50.56 36.97" stroke="#1B4EB2" stroke-width="1.5" stroke-linecap="round" stroke-linejoin="round"/>
<path d="M15.61 35.37L22.29 27.74H36.34L29.27 36.8L15.61 35.37Z" fill="#BBCAE8"/>
<path d="M36.96 27.02H22.91M22.91 27.02L16.23 34.66M22.91 27.02L29.89 36.09" stroke="#1B4EB2" stroke-width="1.5" stroke-linecap="round" stroke-linejoin="round"/>
<path d="M18.94 35.77L27.23 36.56L22.91 31.31L18.94 35.77Z" fill="white"/>
<path d="M9.26001 64.57L15.94 56.94H29.99L22.92 66L9.26001 64.57Z" fill="#BBCAE8"/>
<path d="M24.71 54.8L16.56 55.22M16.56 55.22L9.88 62.85M16.56 55.22L23.54 64.29" stroke="#1B4EB2" stroke-width="1.5" stroke-linecap="round" stroke-linejoin="round"/>
<path d="M10.75 67.84L22.53 68.97L16.39 60.51L10.75 67.84Z" fill="white"/>
<path d="M36.96 27.02L29.89 36.09M57.64 27.9L51.28 37.98" stroke="#1B4EB2" stroke-width="1.5" stroke-linecap="round" stroke-linejoin="round"/>
<path d="M3.85999 69.54L13.7 70.73L16.64 67.33L20.01 71.49L35.9 73.4V98.87L3.85999 93.57V69.54ZM52.41 69.29V95.13L85.03 101.06V73.76L52.41 69.29Z" fill="#EEEEEE"/>
<path d="M25.98 55.22L23.54 64.28L34.9 65.89L45.73 56.86L12.07 53.04L0.940002 62.01L9.88 62.85" stroke="#1B4EB2" stroke-width="1.5" stroke-linecap="round" stroke-linejoin="round"/>
</svg>
